icons/1_Primary/Okta.svg

<svg xmlns="http://www.w3.org/2000/svg" width="1024" height="1024" fill="none">
   <g clip-path="url(#a)">
      <path fill="#56595B" d="M512 1024c282.77 0 512-229.23 512-512S794.77 0 512 0 0 229.23 0 512s229.23 512 512 512Z"/>
      <path fill="#fff" d="m540.48 231.94-11.68 143.9a146.647 146.647 0 0 0-16.72-.95 129.477 129.477 0 0 0-20.83 1.58l-6.63-69.74a3.824 3.824 0 0 1 2.27-3.776 3.823 3.823 0 0 1 1.52-.324h11.83l-5.68-70.53a3.787 3.787 0 0 1 2.154-3.738 3.8 3.8 0 0 1 1.476-.362h38.66a3.605 3.605 0 0 1 3.508 2.563 3.6 3.6 0 0 1 .122 1.537v-.16ZM443 239a3.771 3.771 0 0 0-1.901-2.315 3.775 3.775 0 0 0-2.989-.205l-36.29 13.25a3.692 3.692 0 0 0-2.11 2.055 3.698 3.698 0 0 0 .06 2.945l29.5 64.37-11.27 4.2a3.692 3.692 0 0 0-2.11 2.055 3.698 3.698 0 0 0 .06 2.945l30.14 63.27a135.265 135.265 0 0 1 35.18-13.41L443.13 239H443Zm-89 40.08 83.46 117.7a136.777 136.777 0 0 0-28.4 24.61l-50-49.23a3.809 3.809 0 0 1 .16-5.52l9.15-7.57-49.7-50.33a3.693 3.693 0 0 1-.667-4.326c.241-.463.577-.87.987-1.194l29.5-24.77a3.656 3.656 0 0 1 4.248-.388c.437.258.816.605 1.112 1.018h.15Zm-70.05 68.16a3.749 3.749 0 0 0-5.36 1.26L259.32 382a3.729 3.729 0 0 0 1.58 5.21l64.1 30.28-6 10.26a3.636 3.636 0 0 0-.322 3.003 3.63 3.63 0 0 0 2.062 2.207l63.74 29.19a133.568 133.568 0 0 1 18.3-32.82l-118.83-82.09Zm-47.18 90.88a3.724 3.724 0 0 1 3.054-3.062 3.722 3.722 0 0 1 1.526.062L381 471.61a138.164 138.164 0 0 0-6 37.24l-69.9-5.68a3.646 3.646 0 0 1-2.67-1.45 3.64 3.64 0 0 1-.64-2.97l2.05-11.68-70.53-6.63a3.736 3.736 0 0 1-2.638-1.487A3.738 3.738 0 0 1 230 476l6.63-38 .14.12Zm-5.21 94.35a3.748 3.748 0 0 0-2.629 1.48 3.74 3.74 0 0 0-.681 2.94L235 575a3.724 3.724 0 0 0 3.054 3.062 3.722 3.722 0 0 0 1.526-.062l68.48-17.83 2.05 11.68a3.724 3.724 0 0 0 3.054 3.062 3.722 3.722 0 0 0 1.526-.062l67.53-18.62a136.694 136.694 0 0 1-7.1-36.92l-143.73 13.2.17-.04Zm22.4 100a3.729 3.729 0 0 1 1.58-5.21l130.32-61.85a134.457 134.457 0 0 0 19.41 32.34l-57.12 40.71a3.704 3.704 0 0 1-2.922.63 3.72 3.72 0 0 1-2.438-1.73l-6-10.41-58.22 40.23a3.75 3.75 0 0 1-5.37-1.18l-19.4-33.46.16-.07Zm157.93-27.07L310.44 708.12a3.693 3.693 0 0 0-.667 4.326c.241.463.577.87.987 1.194l29.66 24.77a3.656 3.656 0 0 0 4.248.388 3.655 3.655 0 0 0 1.112-1.018l41-57.75 9.15 7.73a3.74 3.74 0 0 0 2.937.845 3.731 3.731 0 0 0 2.583-1.635l39.76-57.75A141.783 141.783 0 0 1 412 605.4h-.11Zm-20 164.88a3.692 3.692 0 0 1-2.11-2.055 3.698 3.698 0 0 1 .06-2.945L449.91 634a131.526 131.526 0 0 0 35.5 12.31l-17.67 67.84a3.716 3.716 0 0 1-3.37 2.747 3.712 3.712 0 0 1-1.52-.227l-11.2-4.1-18.78 68.32a3.771 3.771 0 0 1-1.901 2.315 3.775 3.775 0 0 1-2.989.205l-36.29-13.25.2.12ZM495.35 648l-11.67 143.9a3.787 3.787 0 0 0 2.154 3.738 3.8 3.8 0 0 0 1.476.362H526a3.605 3.605 0 0 0 3.508-2.563 3.6 3.6 0 0 0 .122-1.537l-5.68-70.53h11.83a3.823 3.823 0 0 0 3.586-2.559 3.824 3.824 0 0 0 .204-1.541l-6.63-69.74a129.477 129.477 0 0 1-20.83 1.58c-5.592.031-11.18-.336-16.72-1.1l-.04-.01Zm139.16-389.55a3.645 3.645 0 0 0-.768-4.202 3.648 3.648 0 0 0-1.282-.798l-36.29-13.25a3.774 3.774 0 0 0-2.989.205 3.782 3.782 0 0 0-1.901 2.315L572.51 311l-11.2-4.1a3.774 3.774 0 0 0-2.989.205 3.782 3.782 0 0 0-1.901 2.315l-17.67 67.84a141.155 141.155 0 0 1 35.5 12.31l60.27-131.11-.01-.01Zm79.2 57.27L612.27 418.44a137.71 137.71 0 0 0-29.19-23.82l39.76-57.75a3.84 3.84 0 0 1 2.591-1.578 3.853 3.853 0 0 1 2.929.788l9.15 7.73 41-57.75a3.65 3.65 0 0 1 1.114-1.014 3.666 3.666 0 0 1 4.246.384l29.66 24.77a3.816 3.816 0 0 1 .32 5.52h-.14Zm54.91 80.78a3.612 3.612 0 0 0 2.099-3.771 3.605 3.605 0 0 0-.519-1.439l-19.4-33.44a3.884 3.884 0 0 0-3.937-1.797 3.893 3.893 0 0 0-1.423.537l-58.22 40.23-6-10.26a3.603 3.603 0 0 0-3.968-1.764 3.594 3.594 0 0 0-1.392.664l-57.12 40.71a139.728 139.728 0 0 1 19.41 32.34l130.32-61.85.15-.16Zm20.51 52.38 6.63 38a3.807 3.807 0 0 1-1.854 3.937 3.82 3.82 0 0 1-1.456.483l-143.74 13.44a135.546 135.546 0 0 0-7.1-36.92l67.53-18.62a3.627 3.627 0 0 1 4.055 1.552c.277.439.456.933.525 1.448l2.05 11.68L784.25 446a3.722 3.722 0 0 1 4.027 1.576c.281.432.469.916.553 1.424l.3-.12Zm-6.47 139.63a3.722 3.722 0 0 0 4.027-1.576c.281-.432.469-.916.553-1.424l6.63-38a3.807 3.807 0 0 0-1.854-3.937 3.82 3.82 0 0 0-1.456-.483L720 536.46l2.05-11.68a3.807 3.807 0 0 0-1.854-3.937 3.82 3.82 0 0 0-1.456-.483l-69.9-5.68a138.164 138.164 0 0 1-6 37.24l139.63 36.45.19.14Zm-37.23 86.79a3.884 3.884 0 0 1-3.937 1.797 3.893 3.893 0 0 1-1.423-.537l-118.81-82a133.586 133.586 0 0 0 18.3-32.82l63.74 29.19a3.667 3.667 0 0 1 2.162 3.72 3.662 3.662 0 0 1-.462 1.45l-6 10.26 64.06 30.29a3.729 3.729 0 0 1 1.58 5.21l-19.21 33.44Zm-158.88-48.44L670 744.56a3.65 3.65 0 0 0 1.114 1.014 3.666 3.666 0 0 0 4.246-.384l29.5-24.77a3.816 3.816 0 0 0 .32-5.52l-49.7-50.33 9.15-7.57a3.705 3.705 0 0 0 1.322-2.724 3.697 3.697 0 0 0-1.162-2.796l-50-49.23a136.223 136.223 0 0 1-28.4 24.61h.16Zm-.79 160.3a3.774 3.774 0 0 1-2.989-.205 3.782 3.782 0 0 1-1.901-2.315l-38.18-139.16a135.265 135.265 0 0 0 35.18-13.41L608 695.34a3.606 3.606 0 0 1-.756 4.211 3.603 3.603 0 0 1-1.294.789l-11.2 4.1 29.5 64.37a3.645 3.645 0 0 1-.768 4.202 3.648 3.648 0 0 1-1.282.798l-36.29 13.25h-.16l.01.1Z"/>
   </g>
   <defs>
      <clipPath id="a">
         <path fill="#fff" d="M0 0h1024v1024H0z"/>
      </clipPath>
   </defs>
</svg>

<svg width="1024" height="1024" viewBox="0 0 1024 1024" fill="none" xmlns="http://www.w3.org/2000/svg">
<g clip-path="url(#clip0_2_3003)">
<path d="M512 1024C794.77 1024 1024 794.77 1024 512C1024 229.23 794.77 0 512 0C229.23 0 0 229.23 0 512C0 794.77 229.23 1024 512 1024Z" fill="#56595B"/>
<path d="M540.48 231.94L528.8 375.84C523.249 375.205 517.667 374.888 512.08 374.89C505.105 374.855 498.139 375.383 491.25 376.47L484.62 306.73C484.582 306.208 484.651 305.683 484.824 305.189C484.997 304.695 485.269 304.241 485.625 303.857C485.98 303.472 486.411 303.165 486.89 302.954C487.369 302.743 487.886 302.633 488.41 302.63H500.24L494.56 232.1C494.518 231.59 494.579 231.077 494.741 230.591C494.902 230.106 495.16 229.658 495.499 229.275C495.839 228.892 496.252 228.581 496.714 228.362C497.177 228.143 497.679 228.02 498.19 228H536.85C537.37 227.992 537.885 228.097 538.361 228.307C538.837 228.517 539.262 228.827 539.606 229.217C539.951 229.606 540.208 230.065 540.358 230.563C540.509 231.06 540.551 231.585 540.48 232.1V231.94ZM443 239C442.858 238.505 442.616 238.044 442.289 237.646C441.962 237.248 441.557 236.921 441.099 236.685C440.641 236.449 440.14 236.309 439.626 236.274C439.112 236.238 438.596 236.309 438.11 236.48L401.82 249.73C401.346 249.91 400.915 250.185 400.552 250.539C400.189 250.892 399.903 251.317 399.71 251.785C399.518 252.254 399.424 252.757 399.435 253.264C399.445 253.77 399.559 254.269 399.77 254.73L429.27 319.1L418 323.3C417.526 323.48 417.095 323.755 416.732 324.109C416.369 324.462 416.083 324.887 415.89 325.355C415.698 325.824 415.604 326.327 415.615 326.834C415.625 327.34 415.739 327.839 415.95 328.3L446.09 391.57C457.134 385.482 468.976 380.968 481.27 378.16L443.13 239H443ZM354 279.08L437.46 396.78C426.906 403.638 417.349 411.919 409.06 421.39L359.06 372.16C358.696 371.793 358.411 371.357 358.221 370.876C358.031 370.396 357.941 369.882 357.956 369.366C357.971 368.849 358.091 368.342 358.308 367.873C358.525 367.404 358.836 366.985 359.22 366.64L368.37 359.07L318.67 308.74C318.3 308.371 318.013 307.928 317.827 307.44C317.641 306.952 317.561 306.43 317.591 305.908C317.621 305.387 317.762 304.878 318.003 304.414C318.244 303.951 318.58 303.544 318.99 303.22L348.49 278.45C348.874 278.117 349.322 277.868 349.808 277.718C350.293 277.568 350.805 277.522 351.309 277.581C351.814 277.64 352.3 277.804 352.738 278.062C353.175 278.32 353.554 278.667 353.85 279.08H354ZM283.95 347.24C283.521 346.951 283.038 346.753 282.529 346.66C282.02 346.567 281.498 346.58 280.995 346.698C280.491 346.816 280.018 347.038 279.604 347.348C279.19 347.658 278.845 348.05 278.59 348.5L259.32 382C259.065 382.442 258.903 382.932 258.845 383.439C258.786 383.946 258.833 384.459 258.981 384.947C259.129 385.436 259.376 385.889 259.706 386.278C260.036 386.667 260.442 386.984 260.9 387.21L325 417.49L319 427.75C318.734 428.198 318.568 428.698 318.512 429.216C318.457 429.735 318.513 430.259 318.678 430.753C318.843 431.247 319.113 431.7 319.469 432.081C319.824 432.462 320.258 432.762 320.74 432.96L384.48 462.15C389.003 450.402 395.164 439.353 402.78 429.33L283.95 347.24ZM236.77 438.12C236.854 437.612 237.042 437.128 237.323 436.696C237.604 436.265 237.971 435.897 238.402 435.615C238.832 435.333 239.317 435.144 239.824 435.058C240.331 434.973 240.851 434.994 241.35 435.12L381 471.61C377.307 483.691 375.288 496.221 375 508.85L305.1 503.17C304.577 503.135 304.067 502.987 303.606 502.737C303.146 502.487 302.744 502.14 302.43 501.72C302.116 501.3 301.896 500.818 301.785 500.305C301.675 499.792 301.676 499.262 301.79 498.75L303.84 487.07L233.31 480.44C232.791 480.39 232.288 480.231 231.834 479.975C231.379 479.719 230.984 479.371 230.672 478.953C230.36 478.535 230.14 478.056 230.024 477.547C229.908 477.039 229.9 476.512 230 476L236.63 438L236.77 438.12ZM231.56 532.47C231.043 532.521 230.542 532.678 230.089 532.933C229.637 533.188 229.242 533.535 228.931 533.95C228.619 534.366 228.398 534.842 228.281 535.349C228.164 535.855 228.153 536.38 228.25 536.89L235 575C235.084 575.508 235.272 575.992 235.553 576.424C235.834 576.855 236.201 577.223 236.632 577.505C237.062 577.787 237.547 577.976 238.054 578.062C238.561 578.147 239.081 578.126 239.58 578L308.06 560.17L310.11 571.85C310.194 572.358 310.382 572.842 310.663 573.274C310.944 573.705 311.311 574.073 311.742 574.355C312.172 574.637 312.657 574.826 313.164 574.912C313.671 574.997 314.191 574.976 314.69 574.85L382.22 556.23C378.164 544.309 375.775 531.885 375.12 519.31L231.39 532.51L231.56 532.47ZM253.96 632.47C253.705 632.028 253.543 631.538 253.485 631.031C253.426 630.524 253.473 630.011 253.621 629.523C253.769 629.034 254.016 628.581 254.346 628.192C254.676 627.803 255.082 627.486 255.54 627.26L385.86 565.41C390.778 577.048 397.313 587.936 405.27 597.75L348.15 638.46C347.733 638.762 347.258 638.974 346.755 639.082C346.252 639.19 345.732 639.193 345.228 639.09C344.724 638.986 344.247 638.779 343.827 638.481C343.407 638.183 343.054 637.802 342.79 637.36L336.79 626.95L278.57 667.18C278.146 667.474 277.666 667.678 277.159 667.778C276.653 667.878 276.132 667.872 275.628 667.762C275.123 667.651 274.648 667.437 274.23 667.134C273.812 666.831 273.462 666.445 273.2 666L253.8 632.54L253.96 632.47ZM411.89 605.4L310.44 708.12C310.07 708.489 309.783 708.932 309.597 709.42C309.411 709.908 309.331 710.43 309.361 710.952C309.391 711.473 309.532 711.982 309.773 712.446C310.014 712.909 310.35 713.316 310.76 713.64L340.42 738.41C340.804 738.743 341.252 738.992 341.738 739.142C342.223 739.292 342.735 739.338 343.239 739.279C343.744 739.22 344.23 739.056 344.668 738.798C345.105 738.54 345.484 738.193 345.78 737.78L386.78 680.03L395.93 687.76C396.332 688.1 396.802 688.351 397.308 688.497C397.815 688.643 398.346 688.679 398.867 688.605C399.389 688.53 399.889 688.346 400.334 688.064C400.779 687.782 401.159 687.409 401.45 686.97L441.21 629.22C430.457 622.615 420.633 614.605 412 605.4H411.89ZM391.89 770.28C391.416 770.1 390.985 769.825 390.622 769.471C390.259 769.118 389.973 768.693 389.78 768.225C389.588 767.756 389.494 767.253 389.505 766.746C389.515 766.24 389.629 765.741 389.84 765.28L449.91 634C461.093 639.781 473.049 643.927 485.41 646.31L467.74 714.15C467.605 714.65 467.368 715.117 467.043 715.52C466.718 715.923 466.312 716.253 465.852 716.49C465.391 716.728 464.887 716.866 464.37 716.897C463.853 716.928 463.335 716.851 462.85 716.67L451.65 712.57L432.87 780.89C432.728 781.385 432.486 781.846 432.159 782.244C431.832 782.642 431.427 782.969 430.969 783.205C430.511 783.441 430.01 783.581 429.496 783.616C428.982 783.652 428.466 783.581 427.98 783.41L391.69 770.16L391.89 770.28ZM495.35 648L483.68 791.9C483.638 792.41 483.699 792.923 483.861 793.409C484.022 793.894 484.28 794.342 484.619 794.725C484.959 795.108 485.372 795.419 485.834 795.638C486.297 795.857 486.799 795.98 487.31 796H526C526.52 796.008 527.035 795.903 527.511 795.693C527.987 795.483 528.412 795.173 528.756 794.783C529.101 794.394 529.358 793.935 529.508 793.437C529.659 792.939 529.701 792.415 529.63 791.9L523.95 721.37H535.78C536.304 721.367 536.821 721.257 537.3 721.046C537.779 720.835 538.21 720.528 538.565 720.143C538.921 719.759 539.193 719.305 539.366 718.811C539.539 718.317 539.608 717.792 539.57 717.27L532.94 647.53C526.051 648.617 519.085 649.145 512.11 649.11C506.518 649.141 500.93 648.774 495.39 648.01L495.35 648ZM634.51 258.45C634.729 257.991 634.849 257.49 634.863 256.982C634.877 256.473 634.785 255.967 634.592 255.496C634.399 255.025 634.109 254.6 633.742 254.248C633.375 253.895 632.938 253.624 632.46 253.45L596.17 240.2C595.684 240.029 595.168 239.958 594.654 239.994C594.14 240.029 593.639 240.169 593.181 240.405C592.723 240.641 592.318 240.968 591.991 241.366C591.665 241.764 591.422 242.225 591.28 242.72L572.51 311L561.31 306.9C560.824 306.729 560.308 306.658 559.794 306.694C559.28 306.729 558.779 306.869 558.321 307.105C557.863 307.341 557.458 307.668 557.131 308.066C556.804 308.464 556.562 308.925 556.42 309.42L538.75 377.26C551.079 379.763 563.018 383.903 574.25 389.57L634.52 258.46L634.51 258.45ZM713.71 315.72L612.27 418.44C603.677 409.2 593.855 401.185 583.08 394.62L622.84 336.87C623.142 336.445 623.528 336.086 623.973 335.815C624.419 335.544 624.915 335.366 625.431 335.292C625.947 335.218 626.473 335.25 626.976 335.385C627.48 335.521 627.951 335.757 628.36 336.08L637.51 343.81L678.51 286.06C678.807 285.648 679.186 285.303 679.624 285.046C680.061 284.788 680.547 284.625 681.051 284.566C681.555 284.507 682.066 284.553 682.552 284.702C683.037 284.85 683.486 285.098 683.87 285.43L713.53 310.2C713.924 310.535 714.246 310.946 714.477 311.408C714.708 311.871 714.842 312.375 714.872 312.891C714.902 313.408 714.827 313.924 714.651 314.411C714.475 314.897 714.203 315.342 713.85 315.72H713.71ZM768.62 396.5C769.091 396.289 769.51 395.979 769.851 395.591C770.192 395.204 770.446 394.748 770.596 394.255C770.745 393.761 770.787 393.241 770.719 392.729C770.651 392.218 770.474 391.727 770.2 391.29L750.8 357.85C750.532 357.414 750.18 357.035 749.766 356.736C749.351 356.436 748.88 356.222 748.382 356.104C747.884 355.987 747.368 355.97 746.863 356.053C746.358 356.137 745.874 356.319 745.44 356.59L687.22 396.82L681.22 386.56C680.968 386.105 680.621 385.71 680.202 385.402C679.783 385.094 679.303 384.88 678.793 384.776C678.284 384.671 677.758 384.678 677.252 384.796C676.745 384.914 676.27 385.141 675.86 385.46L618.74 426.17C626.642 436.023 633.171 446.902 638.15 458.51L768.47 396.66L768.62 396.5ZM789.13 448.88L795.76 486.88C795.846 487.389 795.828 487.911 795.707 488.413C795.585 488.915 795.363 489.387 795.053 489.8C794.744 490.213 794.353 490.56 793.906 490.817C793.458 491.075 792.963 491.239 792.45 491.3L648.71 504.74C648.07 492.163 645.68 479.737 641.61 467.82L709.14 449.2C709.639 449.058 710.164 449.024 710.677 449.103C711.191 449.181 711.681 449.369 712.116 449.653C712.55 449.938 712.918 450.313 713.195 450.752C713.472 451.191 713.651 451.685 713.72 452.2L715.77 463.88L784.25 446C784.749 445.874 785.269 445.853 785.776 445.938C786.283 446.024 786.768 446.213 787.198 446.495C787.629 446.777 787.996 447.145 788.277 447.576C788.558 448.008 788.746 448.492 788.83 449L789.13 448.88ZM782.66 588.51C783.159 588.636 783.679 588.657 784.186 588.572C784.693 588.486 785.178 588.297 785.608 588.015C786.039 587.733 786.406 587.365 786.687 586.934C786.968 586.502 787.156 586.018 787.24 585.51L793.87 547.51C793.956 547.001 793.938 546.479 793.817 545.977C793.695 545.475 793.473 545.003 793.163 544.59C792.854 544.177 792.463 543.83 792.016 543.573C791.568 543.315 791.073 543.151 790.56 543.09L720 536.46L722.05 524.78C722.136 524.271 722.118 523.749 721.997 523.247C721.875 522.745 721.653 522.273 721.343 521.86C721.034 521.447 720.643 521.1 720.196 520.843C719.748 520.585 719.253 520.421 718.74 520.36L648.84 514.68C648.552 527.309 646.533 539.839 642.84 551.92L782.47 588.37L782.66 588.51ZM745.43 675.3C745.162 675.736 744.81 676.115 744.396 676.414C743.981 676.714 743.51 676.928 743.012 677.046C742.514 677.163 741.998 677.18 741.493 677.097C740.988 677.013 740.504 676.831 740.07 676.56L621.26 594.56C628.876 584.537 635.037 573.487 639.56 561.74L703.3 590.93C703.769 591.138 704.188 591.442 704.532 591.822C704.876 592.203 705.137 592.651 705.297 593.138C705.457 593.625 705.513 594.14 705.462 594.65C705.411 595.161 705.254 595.654 705 596.1L699 606.36L763.06 636.65C763.518 636.876 763.924 637.193 764.254 637.582C764.584 637.971 764.831 638.424 764.979 638.913C765.127 639.401 765.174 639.914 765.115 640.421C765.057 640.928 764.895 641.418 764.64 641.86L745.43 675.3ZM586.55 626.86L670 744.56C670.297 744.972 670.676 745.317 671.114 745.574C671.551 745.832 672.037 745.995 672.541 746.054C673.045 746.113 673.556 746.067 674.042 745.918C674.527 745.77 674.976 745.522 675.36 745.19L704.86 720.42C705.254 720.085 705.576 719.674 705.807 719.212C706.038 718.749 706.172 718.245 706.202 717.729C706.232 717.212 706.157 716.696 705.981 716.209C705.805 715.723 705.533 715.278 705.18 714.9L655.48 664.57L664.63 657C665.03 656.665 665.355 656.249 665.583 655.78C665.811 655.31 665.936 654.798 665.952 654.276C665.967 653.754 665.871 653.235 665.671 652.753C665.471 652.271 665.17 651.837 664.79 651.48L614.79 602.25C606.506 611.726 596.948 620.008 586.39 626.86H586.55ZM585.76 787.16C585.274 787.331 584.758 787.402 584.244 787.366C583.73 787.331 583.229 787.191 582.771 786.955C582.313 786.719 581.908 786.392 581.581 785.994C581.254 785.596 581.012 785.135 580.87 784.64L542.69 645.48C554.984 642.672 566.826 638.158 577.87 632.07L608 695.34C608.225 695.798 608.351 696.299 608.368 696.81C608.385 697.32 608.294 697.829 608.1 698.301C607.906 698.774 607.614 699.2 607.244 699.551C606.873 699.903 606.432 700.172 605.95 700.34L594.75 704.44L624.25 768.81C624.469 769.269 624.589 769.77 624.603 770.278C624.617 770.787 624.525 771.293 624.332 771.764C624.139 772.235 623.849 772.66 623.482 773.012C623.115 773.365 622.678 773.636 622.2 773.81L585.91 787.06H585.75L585.76 787.16Z" fill="white"/>
</g>
<defs>
<clipPath id="clip0_2_3003">
<rect width="1024" height="1024" fill="white"/>
</clipPath>
</defs>
</svg>
